T: Paddy Fahy's
M: 6/8
L: 1/8
K: Gdor
|DGA BGG|cGG dGG|gdB Bcd||DGA BAG|cBA dfa|gfd Bcd|
